!!!COM: Haydn, Franz Joseph
!!!OTL: String Quartet in B-flat Major
!!!OPS: Opus 64
!!!ONM: No. 3
!!!OMD: Minuetto: Allegretto
!!!OMV: 3
!!!SCT: H III:67
!!!SCA: Thematisch-bibliographisches Werkevererzeichnis (A. van Hoboken)
!!!YOR: Dover Edition; reprint of Eulenburg Edition
!!!ENC: Frances Bennion
!!!CDT: 1732/3/31/-1809/5/31/
!!!CNT: Oesterreich
!!!YEC: Copyright (c) 1994, 2000 Center for Computer Assisted Research in the Humanities
!!!YEM: Rights to all derivative editions reserved.
!!!YEM: Refer to licensing agreement for further details.
!!!YEN: United States of America
**kern	**kern	**kern	**kern
*k[b-e-]	*k[b-e-]	*k[b-e-]	*k[b-e-]
*B-:	*B-:	*B-:	*B-:
*clefF4	*clefC3	*clefF	*clefF
*M3/4	*M3/4	*M3/4	*M3/4
2r	2r	2r	2r
4r	4r	4r	8aa
.	.	.	8bb-
=1	=1	=1	=1
4BB-	4f	4d	4ff
4BB-	4f	4d	4r
4r	4r	4r	8aa
.	.	.	8bb-
=2	=2	=2	=2
4BB-	4B-	4d	8ff
.	.	.	8ddd
4BB-	4B-	4d	8ccc
.	.	.	8bb-
4BB-	4B-	4e-	8aa
.	.	.	8gg
=3	=3	=3	=3
4BB-	4B-	4d	4ff
4BB-	4B-	8d	8ff
.	.	8f	8dd
4BB-	4B-	8g	8ee-
.	.	8e-	8gg
=4	=4	=4	=4
4BB-	4B-	4d	4ff
2r	2r	2r	4r
.	.	.	8a
.	.	.	8b-
=5	=5	=5	=5
2.D	2B-	2f	4f
.	.	.	4dd
.	4f	4a-	4b
=6	=6	=6	=6
4E-	4e-	4g	8cc
.	.	.	8b
2r	2r	2r	8dd
.	.	.	8cc
.	.	.	8ee-
.	.	.	8dd
=7	=7	=7	=7
2.r	2.r	2.r	8ff
.	.	.	8ee-
.	.	.	4gg
.	.	.	4gg
=8	=8	=8	=8
4r	4r	4r	4gg
4E-	4c	4g	2r
4E-	4c	4g	.
=9	=9	=9	=9
4E-	4c	4g	4r
2r	2r	2r	16ff
.	.	.	8.ee-
.	.	.	16dd
.	.	.	8.cc
=10	=10	=10	=10
4r	4r	4r	4b-
4F	4B-	4d	2r
4F	4B-	4d	.
=11	=11	=11	=11
4r	4r	4r	2.f 2.cc
4FF	4A	4e-	.
4FF	4A	4e-	.
=12	=12	=12	=12
4BB-	4B-	4d	4b- 4d
2r	2r	2r	4f 4cc
.	.	.	4b- 4d
=13	=13	=13	=13
2.r	2.r	2.r	4cc 4f
.	.	.	4b- 4d
.	.	.	4cc 4f
=14	=14	=14	=14
2r	2r	2r	4b- 4d
.	.	.	4r
4c	4F	4r	4r
=15	=15	=15	=15
4B-	4D	2.r	2.r
4c	4F	.	.
4B-	4D	.	.
=16	=16	=16	=16
4c	4F	2r	2r
4B-	4D	.	.
4r	4b-	4dd	8ee
.	.	.	8ff
=17	=17	=17	=17
4f	4a	4cc	4aa
4f	4a	4cc	4aa
4r	4b-	4dd	8ee
.	.	.	8ff
=18	=18	=18	=18
4f	4a	4cc	4aa
4f	4a	4cc	4aa
4r	4r	4r	8ee
.	.	.	8ff
=19	=19	=19	=19
2A	[2.c	2f	4ccc
.	.	.	8bb
.	.	.	8ccc
4G	.	4e	8aa
.	.	.	8bb-
=20	=20	=20	=20
4F	4c]	4f	8gg#
.	.	.	8aa
2r	2r	2r	8ff#
.	.	.	8gg
.	.	.	8ee
.	.	.	8ff
=21	=21	=21	=21
4BB-	4d	4f	8cc#
.	.	.	8dd
4r	4r	4r	8a
.	.	.	8b-
4C	8E	4B-	8g
.	8G	.	8e
=22	=22	=22	=22
4FF	4F	4A	4f
4r	2r	2r	2r
8E	.	.	.
8F	.	.	.
=23	=23	=23	=23
4GG	2.r	2.B	2.d
4GG	.	.	.
8F#	.	.	.
8G	.	.	.
=24	=24	=24	=24
4GG	2.r	2.c	2.e-
4GG	.	.	.
8D	.	.	.
8E-	.	.	.
=25	=25	=25	=25
4FF	2.r	2.A	2.c
4FF	.	.	.
8E	.	.	.
8F	.	.	.
=26	=26	=26	=26
4FF	2.r	2B-	2d
4FF	.	.	.
4r	.	8c#	8e
.	.	8d	8f
=27	=27	=27	=27
2.r	4F	8c#	8e
.	.	8d	8f
.	4F	8e-	8g
.	.	8d	8f
.	4F	8c	8e-
.	.	8B-	8d
=28	=28	=28	=28
4r	4F	4A	4c
4F	4c	4A	4r
4F	4c	4A	8e
.	.	.	8f
=29	=29	=29	=29
4r	4r	4r	4a
4F	4A	4c	4r
4F	4A	4c	8g#
.	.	.	8a
=30	=30	=30	=30
4r	4r	4r	4cc
4F	4A	4c	4r
4F	4A	4c	8b
.	.	.	8cc
=31	=31	=31	=31
4r	4r	4r	4ee-
4F	4A	4c 4e-	2r
4F	4A	4c 4e-	.
=32	=32	=32	=32
4F	4A	4c 4e-	2r
2r	2r	2r	.
.	.	.	8aa
.	.	.	8bb-
=33	=33	=33	=33
4BB-	4f	4d	4ff
4BB-	4f	4d	4r
4r	4r	4r	8aa
.	.	.	8bb-
=34	=34	=34	=34
4BB-	4B-	4d	8ff
.	.	.	8ddd
4BB-	4B-	4d	8ccc
.	.	.	8bb-
4BB-	4B-	4e-	8aa
.	.	.	8gg
=35	=35	=35	=35
4BB-	4B-	4d	4ff
4BB-	4B-	8d	8ff
.	.	8f	8dd
4BB-	4B-	8g	8ee-
.	.	8e-	8gg
=36	=36	=36	=36
4BB-	4B-	4d	4ff
2r	2r	2r	4r
.	.	.	8a
.	.	.	8b-
=37	=37	=37	=37
2.D	2B-	2f	4f
.	.	.	4dd
.	4f	4a-	4b
=38	=38	=38	=38
4E-	4e-	4g	8cc
.	.	.	8b
2r	2r	2r	8dd
.	.	.	8cc
.	.	.	8ee-
.	.	.	8dd
=39	=39	=39	=39
2.r	2.r	2.r	8ff
.	.	.	8ee-
.	.	.	4gg
.	.	.	4gg
=40	=40	=40	=40
4r	4r	4r	4gg
4E-	4c	4g	2r
4E-	4c	4g	.
=41	=41	=41	=41
4E-	4c	4g	4r
2r	2r	2r	16ff
.	.	.	8.ee-
.	.	.	16dd
.	.	.	8.cc
=42	=42	=42	=42
4r	4r	4r	4b-
4F	4B-	4d	2r
4F	4B-	4d	.
=43	=43	=43	=43
4r	4r	4r	2.f 2.cc
4FF	4A	4e-	.
4FF	4A	4e-	.
=44	=44	=44	=44
4BB-	4B-	4d	4d 4b-
2r	2r	2r	4f 4cc
.	.	.	4d 4b-
=45	=45	=45	=45
2.r	2.r	2.r	4cc 4f
.	.	.	4b- 4d
.	.	.	4cc 4f
=46	=46	=46	=46
4r	4r	4r	4b- 4d
4A	4f	4cc	4ee-
4B-	4f	4b-	4dd
=47	=47	=47	=47
4A	4f	4cc	4ee-
4B-	4f	4b-	4dd
4E-	4e-	4b- 4e-	4gg
=48	=48	=48	=48
4B-	4d	4b- 4d	4ff
2r	2r	2r	2r
=49	=49	=49	=49
2.r	2.r	2.r	2r
.	.	.	8aa
.	.	.	8bb-
=50	=50	=50	=50
4d-	4f	4b-	4ff
4d-	4f	4b-	4ff
4r	4r	4r	8aa
.	.	.	8bb-
=51	=51	=51	=51
4c	4g	4b-	4ee
4c	4g	4b-	4ee
4r	4r	4r	8bb
.	.	.	8ccc
=52	=52	=52	=52
4A	4f	4cc	4ee-
4A	4f	4cc	4ee-
4r	4r	4r	4r
=53	=53	=53	=53
2.r	2.r	2.r	2r
.	.	.	8bb
.	.	.	8ccc
=54	=54	=54	=54
4r	4r	4r	4eee-
8e-	8ee-	8ee-	8eee-
8c	8cc	8cc	8ccc
8e-	8ee-	8ee-	8eee-
8c	8cc	8cc	8ccc
=55	=55	=55	=55
8A	8a	8a	8aa
8F	8f	8f	8ff
8E-	8e-	8e-	8ee-
8C	8c	8c	8cc
8AA	8A	8A	8a
8EE-	8E-	8e-	8e-
=56	=56	=56	=56
8DD	8D	8d	8d
8FF	8F	8f	8f
8BB-	8B-	8b-	8b-
8D	8d	8dd	8dd
8F	8f	8ff	8ff
8D	8d	8dd	8dd
=57	=57	=57	=57
4E-	4g	4cc	4cc
4r	4r	4r	8ee-
.	.	.	8cc
4F	4c	4c 4e- 4a	8a
.	.	.	8f
=58	=58	=58	=58
4BB-	4d	4d 4b- 4B-	4b- 4d
4r	4r	4r	4r
4r	4r	[4dd	[4ff
=59	=59	=59	=59
4BB-	2.r	4dd]	4ff]
2r	.	8ee-	8gg
.	.	8r	8r
.	.	[4dd	[4ff
=60	=60	=60	=60
4BB-	2r	4dd]	4ff]
2r	.	8b-	8dd
.	.	4.r	8r
.	[4d	.	[4b-
=61	=61	=61	=61
4BB-	4d]	2.r	4b-]
2r	8D	.	8f
.	8r	.	8r
.	[4F	.	[4d
=62	=62	=62	=62
4BB-	4F]	2.r	4d]
2r	8D	.	8B-
.	8r	.	8r
.	4B-	.	4d
=63	=63	=63	=63
8AA	4c	2.r	4e-
8F	.	.	.
8AA	8c	.	8e-
8F	8B-	.	8d
8AA	4c	.	4e-
8F	.	.	.
=64	=64	=64	=64
8BB-	4B-	2.r	2d
8F	.	.	.
8BB-	4r	.	.
8F	.	.	.
8BB-	4B-	.	4d
8F	.	.	.
=65	=65	=65	=65
8E-	4A	2.r	4c
8F	.	.	.
8E-	8A	.	8c
8F	8G	.	8B-
8E-	4A	.	4c
8F	.	.	.
=66	=66	=66	=66
8D	4B-	2r	2B-
8F	.	.	.
8D	2r	.	.
8F	.	.	.
8D	.	4b	4B
8F	.	.	.
=67	=67	=67	=67
8AA	2.F	4cc	4c
8F	.	.	.
8AA	.	8cc	8c
8F	.	8b	8B
8AA	.	4cc	4c
8F	.	.	.
=68	=68	=68	=68
8BB-	4F	2dd	2d
8F	.	.	.
8BB-	4r	.	.
8F	.	.	.
4BB-	8d	4gg	4g
.	8c	.	.
=69	=69	=69	=69
4C	4B-	4ee	4e
4C	4B- 4g	8ee	8e
.	.	8dd	8d
4C	4B- 4g	4ee	4e
=70	=70	=70	=70
4FF	4A 4f	4ff	4f
4F	4r	4r	4r
4r	[4d	[4f	8ff
.	.	.	8dd
=71	=71	=71	=71
[2.GG	4d]	4f]	2b
.	4e-	4g	.
.	4d	4f	[4aa-
=72	=72	=72	=72
2.GG_	4c	4e-	4aa-]
.	2B	4d	8gg
.	.	.	8r
.	.	[4a-	[4ff
=73	=73	=73	=73
2GG]	2c	4a-]	4ff]
.	.	8g	8ee-
.	.	8r	8r
4BB	4A-	[4f	[4dd
=74	=74	=74	=74
4C	4G	4f]	4dd]
2r	4r	8e-	8cc
.	.	8r	8r
.	[4c	[4e-	8ee-
.	.	.	8cc
=75	=75	=75	=75
[2.FF	4c]	4e-]	2a
.	4d	4f	.
.	4c	4e-	[4gg
=76	=76	=76	=76
2.FF_	4B-	4d	4gg]
.	2A	4c	8ff
.	.	.	8r
.	.	[4g	[4ee-
=77	=77	=77	=77
2FF]	2B-	4g]	4ee-]
.	.	8f	8dd
.	.	8r	8r
4AA	4F	[4e-	[4cc
=78	=78	=78	=78
2BB-	4F	4e-]	4cc]
.	2r	8d	8b-
.	.	8r	8r
4DD	.	[4a-	[4b-
=79	=79	=79	=79
2EE-	2.r	4a-]	4b-]
.	.	8g	8B-
.	.	8r	8r
4FF	.	[4f	[4b-
=80	=80	=80	=80
2GG	2.r	4f]	4b-]
.	.	8e-	8B-
.	.	8r	8r
4FF	.	[4d	[4b-
=81	=81	=81	=81
2EE-	2.r	4d]	4b-]
.	.	8c	8B-
.	.	8r	8r
4EE	.	[4d-	[4b-
=82	=82	=82	=82
2FF	2r	4d-]	4b-]
.	.	8c	8a
.	.	4.r	8r
4r	[4dd	.	[4ff
=83	=83	=83	=83
4BB-	4dd]	2.r	4ff]
2r	8ee-	.	8gg
.	8r	.	8r
.	[4dd	.	[4ff
=84	=84	=84	=84
4BB-	4dd]	2.r	4ff]
2r	8b-	.	8dd
.	8r	.	8r
.	[4d	.	[4b-
=85	=85	=85	=85
4BB-	4d]	2.r	4b-]
2r	8D	.	8f
.	8r	.	8r
.	[4F	.	[4d
=86	=86	=86	=86
4BB-	4F]	2r	4d]
2r	8D	.	8B-
.	4.r	.	8r
.	.	4B-	4d
=87	=87	=87	=87
8AA	2.r	4c	4e-
8F	.	.	.
8AA	.	8c	8e-
8F	.	8B-	8d
8AA	.	4c	4e-
8F	.	.	.
=88	=88	=88	=88
8BB-	2.r	4B-	4d
8F	.	.	.
8BB-	.	4r	4r
8F	.	.	.
8BB-	.	4B-	4d
8F	.	.	.
=89	=89	=89	=89
8AA	2.r	4c	4e-
8F	.	.	.
8AA	.	8c	8e-
8F	.	8B-	8d
8AA	.	4c	4e-
8F	.	.	.
=90	=90	=90	=90
8BB-	2r	4B-	4d
8F	.	.	.
8BB-	.	4r	4r
8F	.	.	.
8BB-	4B-	4d	4dd
8F	.	.	.
=91	=91	=91	=91
8AA	4c	4e-	4ee-
8F	.	.	.
8AA	8c	8e-	8ee-
8F	8B-	8d	8dd
8AA	4c	4e-	4ee-
8F	.	.	.
=92	=92	=92	=92
4AA	4e-	4g	4gg
2r	2r	2r	2r
=93	=93	=93	=93
2.r	2.r	2r	2r
.	.	[4dd	[4ff
=94	=94	=94	=94
4BB-	2.r	4dd]	4ff]
2r	.	8b-	8dd
.	.	8r	8r
.	.	[4cc	[4ee-
=95	=95	=95	=95
4F	2r	4cc]	4ee-]
2r	.	8a	8cc
.	.	8r	8r
.	4c	4e-	4a
=96	=96	=96	=96
4BB-	4B-	4d	2b-
2BB-	2F	2B- 2d	.
.	.	.	8f
.	.	.	8dd
=97	=97	=97	=97
4BB-	4F	4A 4e-	4cc
2BB-	2F	2e- 2A	8cc
.	.	.	8b-
.	.	.	8cc
.	.	.	8dd
=98	=98	=98	=98
4BB-	4F	4d 4B-	2b-
2BB-	2F	2d 2B-	.
.	.	.	8f
.	.	.	8dd
=99	=99	=99	=99
4BB-	4F	4e- 4A	4cc
2BB-	2F	2e- 2A	8cc
.	.	.	8b-
.	.	.	8cc
.	.	.	8dd
=100	=100	=100	=100
4BB-	4F	4d 4B-	4b-
2r	2r	2r	2r
==	==	==	==
*-	*-	*-	*-
!!!RWG1: This file contains only pitch and duration data.
!!!RWG2: Transposing instruments are not transposed.
!!!RWG3: Spines may have incompatible meters.
!!!RWG4: Durations of rests and tied notes may be interpreted.
!!!RWG: Key is interpreted using the Humdrum key tool.
!!!GTL: 6 Quartetti ("Tost III")
!!!AFT: stage1
!!!END: 1997/04/15
!!!KEY: 1110625068
!!!EMD: Converted from MuseData to Humdrum Dec 16, 2000, by Andreas Kornstaedt using muse2kern.
!!!EMD: Manual editing by Craig Sapp, Nov 2001
